apps/site/public/icons/companies/nestjs.svg

<svg width="48" height="48" viewBox="0 0 48 48" fill="none" xmlns="http://www.w3.org/2000/svg">
<g clip-path="url(#clip0_4437_8849)">
<path fill-rule="evenodd" clip-rule="evenodd" d="M28.1739 0.592377C27.834 0.592377 27.5184 0.665205 27.2271 0.762305C27.8462 1.17499 28.186 1.72119 28.3559 2.34021C28.3681 2.42517 28.3924 2.48586 28.4045 2.57082C28.4167 2.64365 28.4288 2.71648 28.4288 2.7893C28.4773 3.85742 28.1496 3.99093 27.919 4.62209C27.567 5.43532 27.6641 6.30924 28.0889 7.01323C28.1253 7.09819 28.1739 7.19529 28.2346 7.28025C27.7733 4.20941 30.3344 3.74818 30.8078 2.7893C30.8442 1.9518 30.1523 1.39347 29.6061 1.00506C29.0842 0.689479 28.6108 0.592377 28.1739 0.592377ZM32.0337 1.28423C31.9851 1.56339 32.0215 1.49057 32.0094 1.63622C31.9973 1.73332 31.9973 1.8547 31.9852 1.9518C31.9609 2.0489 31.9366 2.146 31.9002 2.24311C31.8759 2.34021 31.8395 2.43731 31.8031 2.53441C31.7545 2.63152 31.7181 2.71648 31.6696 2.81358C31.6332 2.86215 31.6089 2.91068 31.5725 2.95923C31.5482 2.99564 31.5239 3.03206 31.4996 3.06847C31.439 3.15344 31.3783 3.2384 31.3176 3.31122C31.2447 3.38405 31.1841 3.46901 31.0991 3.52971V3.54186C31.0263 3.60255 30.9534 3.67537 30.8685 3.73606C30.6136 3.93026 30.3223 4.07591 30.0553 4.25798C29.9703 4.31867 29.8853 4.36722 29.8125 4.44005C29.7275 4.50073 29.6547 4.56142 29.5819 4.63425C29.4969 4.70708 29.4362 4.7799 29.3634 4.86487C29.3027 4.9377 29.2299 5.02266 29.1813 5.10762C29.1207 5.19258 29.06 5.27755 29.0114 5.36251C28.9628 5.45961 28.9264 5.54458 28.8779 5.64168C28.8415 5.73878 28.8051 5.82374 28.7808 5.92084C28.7444 6.03009 28.7201 6.12719 28.6958 6.22429C28.6837 6.27286 28.6837 6.33353 28.6716 6.38208C28.6594 6.43065 28.6594 6.47918 28.6473 6.52773C28.6473 6.62483 28.6352 6.73407 28.6352 6.83117C28.6352 6.904 28.6352 6.97683 28.6473 7.04965C28.6473 7.14675 28.6595 7.24385 28.6837 7.3531C28.6959 7.45019 28.7201 7.5473 28.7444 7.6444C28.7808 7.7415 28.8051 7.8386 28.8415 7.9357C28.8658 7.9964 28.9022 8.05708 28.9265 8.10563L26.1348 7.02538C25.6614 6.89186 25.2002 6.77049 24.7268 6.66125C24.472 6.60056 24.2171 6.53987 23.9622 6.47918C23.2339 6.33353 22.4935 6.22429 21.7531 6.15147C21.7289 6.15147 21.7167 6.13931 21.6924 6.13931C20.9642 6.06649 20.248 6.03007 19.5198 6.03007C18.9857 6.03007 18.4516 6.05433 17.9297 6.09076C17.1893 6.13933 16.4489 6.23641 15.7085 6.35779C15.5265 6.38205 15.3444 6.41848 15.1623 6.45489C14.7861 6.52772 14.4219 6.61268 14.0699 6.69765C13.8879 6.74622 13.7058 6.79475 13.5237 6.8433C13.3417 6.91612 13.1717 7.00109 13.0018 7.07392C12.8683 7.1346 12.7348 7.19529 12.6013 7.25598C12.577 7.26814 12.5527 7.26814 12.5406 7.28024C12.4192 7.34093 12.31 7.38947 12.2007 7.45017C12.1643 7.46232 12.14 7.47442 12.1158 7.48658C11.9823 7.54727 11.8487 7.62009 11.7395 7.68078C11.6545 7.71719 11.5696 7.76575 11.4967 7.80216C11.4603 7.82642 11.4118 7.85073 11.3875 7.86285C11.2783 7.92354 11.169 7.98422 11.0719 8.04492C10.9627 8.1056 10.8656 8.16629 10.7806 8.22697C10.6957 8.28767 10.6107 8.33622 10.5379 8.3969C10.5257 8.40906 10.5136 8.40906 10.5014 8.42116C10.4286 8.46973 10.3437 8.5304 10.2708 8.59109C10.2708 8.59109 10.2587 8.60324 10.2466 8.61535C10.1859 8.66392 10.1252 8.71245 10.0645 8.761C10.0403 8.77315 10.0159 8.79741 9.99168 8.80957C9.931 8.85814 9.87031 8.91881 9.80962 8.96736C9.79746 8.99162 9.77321 9.00377 9.76105 9.01593C9.68823 9.08876 9.6154 9.14944 9.54257 9.22227C9.53041 9.22227 9.53041 9.23443 9.51832 9.24653C9.44549 9.30722 9.37266 9.38004 9.29984 9.45287C9.28768 9.46502 9.28768 9.47712 9.27558 9.47712C9.21489 9.53781 9.1542 9.5985 9.09351 9.67133C9.06926 9.69558 9.03282 9.7199 9.00855 9.74415C8.94786 9.81698 8.87504 9.88981 8.80221 9.96263C8.79005 9.98689 8.7658 9.99905 8.75364 10.0233C8.65654 10.1204 8.57157 10.2175 8.47447 10.3146C8.46231 10.3268 8.45022 10.3389 8.43806 10.351C8.24385 10.5574 8.03751 10.7637 7.81904 10.9458C7.60056 11.14 7.36994 11.3221 7.13932 11.4798C6.89657 11.6498 6.66596 11.7954 6.41106 11.9411C6.16831 12.0746 5.91341 12.196 5.64639 12.3052C5.39149 12.4144 5.12447 12.5116 4.85744 12.5965C4.34765 12.7058 3.82573 12.9121 3.37663 12.9485C3.27953 12.9485 3.17029 12.9728 3.07319 12.9849C2.96395 13.0092 2.86685 13.0335 2.76975 13.0577C2.67265 13.0942 2.57555 13.1306 2.47844 13.167C2.38134 13.2034 2.28424 13.252 2.18714 13.3005C2.10218 13.3612 2.00508 13.4097 1.92011 13.4704C1.83515 13.5311 1.75018 13.6039 1.67736 13.6768C1.5924 13.7375 1.50743 13.8224 1.4346 13.8952C1.36177 13.9802 1.28895 14.053 1.22826 14.138C1.16757 14.2351 1.09475 14.3201 1.04619 14.4172C0.985507 14.5021 0.92482 14.5992 0.876267 14.6963C0.827697 14.8056 0.779167 14.9027 0.742753 15.0119C0.70634 15.109 0.669926 15.2183 0.633513 15.3275C0.609257 15.4246 0.584943 15.5217 0.572826 15.6188C0.572826 15.631 0.56067 15.6431 0.56067 15.6552C0.536413 15.7645 0.536413 15.9101 0.524256 15.9829C0.5121 16.0679 0.5 16.1407 0.5 16.2257C0.5 16.2743 0.5 16.3349 0.512156 16.3835C0.524313 16.4684 0.536413 16.5413 0.560727 16.6141C0.584983 16.6869 0.609297 16.7597 0.645687 16.8326V16.8447C0.682101 16.9176 0.730654 16.9904 0.779201 17.0632C0.827771 17.136 0.876307 17.2089 0.936994 17.2817C0.997681 17.3424 1.07051 17.4152 1.14333 17.4759C1.21616 17.5487 1.28899 17.6094 1.37395 17.6701C1.66526 17.925 1.73808 18.01 2.11435 18.2042C2.17504 18.2406 2.23573 18.2648 2.30856 18.3013C2.32072 18.3013 2.33281 18.3134 2.34497 18.3134C2.34497 18.3377 2.34497 18.3498 2.35713 18.3741C2.36929 18.4712 2.39354 18.5683 2.41782 18.6654C2.44207 18.7746 2.47851 18.8718 2.51492 18.9567C2.55134 19.0295 2.57561 19.1024 2.61202 19.1752C2.62418 19.1995 2.63628 19.2238 2.64844 19.2359C2.69701 19.333 2.74554 19.418 2.79408 19.5029C2.85478 19.5879 2.91546 19.6728 2.97615 19.7578C3.03684 19.8306 3.10967 19.9156 3.18249 19.9884C3.25532 20.0612 3.32815 20.1219 3.41311 20.1948C3.41311 20.1948 3.42527 20.2069 3.43737 20.2069C3.5102 20.2676 3.58302 20.3283 3.65585 20.3769C3.74081 20.4375 3.82578 20.4861 3.92288 20.5346C4.00784 20.5832 4.10494 20.6317 4.20204 20.6682C4.27487 20.7046 4.35983 20.7289 4.4448 20.7531C4.45696 20.7653 4.46905 20.7653 4.49337 20.7774C4.54194 20.7896 4.6026 20.8016 4.65115 20.8138C4.61474 21.4692 4.60258 22.0883 4.69973 22.3067C4.80896 22.5495 5.34302 21.8091 5.87708 20.9595C5.80426 21.797 5.7557 22.7801 5.87708 23.0714C6.0106 23.3748 6.73886 22.4281 7.37002 21.3843C15.9756 19.3937 23.8288 25.3412 24.6541 33.7405C24.4963 32.4296 22.882 31.7013 22.1416 31.8834C21.7775 32.7816 21.1585 33.9347 20.1632 34.6508C20.2481 33.8497 20.2117 33.0243 20.0418 32.2232C19.7748 33.3399 19.2528 34.3838 18.5367 35.2819C17.3836 35.3669 16.2305 34.8086 15.6237 33.9711C15.5751 33.9347 15.563 33.8618 15.5266 33.8133C15.4901 33.7283 15.4537 33.6434 15.4295 33.5584C15.393 33.4734 15.3688 33.3885 15.3566 33.3035C15.3445 33.2185 15.3445 33.1336 15.3445 33.0365C15.3445 32.9758 15.3445 32.9151 15.3445 32.8544C15.3566 32.7694 15.3809 32.6845 15.4052 32.5995C15.4294 32.5145 15.4537 32.4296 15.4901 32.3446C15.5387 32.2597 15.5751 32.1747 15.6358 32.0897C15.8421 31.5071 15.8421 31.0337 15.4658 30.7546C15.393 30.706 15.3202 30.6696 15.2352 30.6332C15.1867 30.621 15.126 30.5968 15.0774 30.5846C15.041 30.5725 15.0168 30.5604 14.9803 30.5482C14.8954 30.524 14.8104 30.4996 14.7254 30.4875C14.6405 30.4633 14.5555 30.4511 14.4706 30.4511C14.3856 30.4389 14.2885 30.4269 14.2035 30.4269C14.1428 30.4269 14.0821 30.439 14.0215 30.439C13.9244 30.439 13.8394 30.4512 13.7544 30.4754C13.6695 30.4876 13.5845 30.4997 13.4995 30.524C13.4146 30.5482 13.3296 30.5726 13.2446 30.609C13.1597 30.6454 13.0869 30.6818 13.0019 30.7182C12.9291 30.7546 12.8562 30.8032 12.7713 30.8396C9.94319 32.6845 11.6303 37.0055 13.5602 38.2557C12.832 38.3892 12.0916 38.547 11.8852 38.7048C11.8731 38.717 11.861 38.7291 11.861 38.7291C12.3829 39.0446 12.9291 39.3117 13.4996 39.5423C14.2764 39.7972 15.1017 40.0278 15.4659 40.1249V40.1371C16.4733 40.3434 17.4929 40.4162 18.5246 40.3555C23.9016 39.9793 28.3076 35.8889 29.1087 30.4997C29.1329 30.609 29.1572 30.7061 29.1815 30.8153C29.2179 31.0338 29.2664 31.2644 29.2907 31.495V31.5072C29.315 31.6164 29.3271 31.7257 29.3393 31.8228V31.8713C29.3515 31.9806 29.3635 32.0898 29.3635 32.1869C29.3757 32.3204 29.3878 32.4539 29.3878 32.5875V32.7817C29.3878 32.8423 29.4 32.9152 29.4 32.9759C29.4 33.0487 29.3878 33.1215 29.3878 33.1943V33.3643C29.3878 33.4492 29.3756 33.5221 29.3756 33.607C29.3756 33.6556 29.3756 33.7041 29.3635 33.7648C29.3635 33.8498 29.3513 33.9347 29.3513 34.0318C29.3391 34.0682 29.3391 34.1047 29.3391 34.1411C29.327 34.2382 29.3149 34.3231 29.3027 34.4202C29.3027 34.4567 29.3027 34.4931 29.2906 34.5295C29.2784 34.6509 29.2542 34.7601 29.242 34.8815V34.8937V34.9058C29.2178 35.015 29.1934 35.1364 29.1692 35.2457V35.2821C29.1449 35.3913 29.1206 35.5005 29.0964 35.6098C29.0964 35.622 29.0842 35.6462 29.0842 35.6584C29.0599 35.7676 29.0356 35.8768 28.9992 35.9861V36.0225C28.9628 36.1439 28.9264 36.2531 28.9021 36.3623C28.89 36.3745 28.89 36.3866 28.89 36.3866C28.8536 36.508 28.8172 36.6294 28.7808 36.7507C28.7322 36.8721 28.6958 36.9813 28.6472 37.1027C28.5987 37.2241 28.5623 37.3455 28.5137 37.4547C28.4652 37.5761 28.4166 37.6853 28.3681 37.8067H28.3559C28.3073 37.9159 28.2588 38.0373 28.1981 38.1466C28.1859 38.183 28.1738 38.2073 28.1617 38.2315C28.1495 38.2437 28.1495 38.2558 28.1374 38.2679C27.3485 39.858 26.1833 41.2538 24.7267 42.3462C24.6296 42.4069 24.5325 42.4797 24.4354 42.5526C24.4112 42.5768 24.3747 42.589 24.3505 42.6132C24.2655 42.6739 24.1805 42.7346 24.0834 42.7953L24.1199 42.8681H24.132C24.3019 42.8439 24.4719 42.8196 24.6418 42.7953H24.6539C24.9695 42.7467 25.2851 42.6861 25.6007 42.6254C25.6857 42.6132 25.7828 42.589 25.8677 42.5647C25.9284 42.5525 25.977 42.5404 26.0376 42.5283C26.1226 42.5161 26.2076 42.4919 26.2925 42.4797C26.3654 42.4554 26.4382 42.4433 26.511 42.419C27.7248 42.1277 28.9021 41.7272 30.0309 41.2538C28.1011 43.8877 25.5157 46.0118 22.4934 47.4076C23.8893 47.3105 25.2851 47.0799 26.6324 46.6915C31.5239 45.2471 35.6386 41.9578 38.1025 37.5275C37.6049 40.3313 36.4882 43.0016 34.8375 45.3321C36.0148 44.5552 37.0951 43.6571 38.0782 42.6375C40.7971 39.7973 42.5813 36.1924 43.1882 32.3204C43.6009 34.2382 43.7223 36.2167 43.5402 38.1708C52.3036 25.9481 44.2685 13.2764 40.9063 9.93852C40.8942 9.91426 40.8821 9.9021 40.8821 9.87783C40.8699 9.88998 40.8699 9.88998 40.8699 9.90209C40.8699 9.88993 40.8699 9.88993 40.8578 9.87783C40.8578 10.0235 40.8456 10.1691 40.8335 10.3148C40.7971 10.594 40.7607 10.861 40.7121 11.128C40.6514 11.395 40.5786 11.6621 40.5058 11.9291C40.4208 12.184 40.3237 12.451 40.2145 12.7059C40.1052 12.9487 39.9839 13.2036 39.8503 13.4463C39.7168 13.6769 39.5712 13.9197 39.4134 14.1382C39.2556 14.3688 39.0857 14.5873 38.9157 14.7936C38.7337 15.0121 38.5395 15.2063 38.3453 15.4005C38.2239 15.5097 38.1147 15.6068 37.9933 15.7039C37.8962 15.7889 37.8112 15.8617 37.7141 15.9467C37.4956 16.1166 37.2771 16.2744 37.0344 16.4201C36.8038 16.5657 36.561 16.7114 36.3183 16.8327C36.0634 16.9541 35.8085 17.0633 35.5536 17.1726C35.2987 17.2697 35.0317 17.3547 34.7646 17.4275C34.4976 17.5003 34.2184 17.561 33.9514 17.6095C33.6723 17.6581 33.3931 17.6824 33.1261 17.7066C32.9319 17.7188 32.7377 17.7309 32.5434 17.7309C32.2643 17.7309 31.9851 17.7066 31.7181 17.6823C31.4389 17.6581 31.1597 17.6216 30.8927 17.561C30.6136 17.5124 30.3465 17.4396 30.0795 17.3546H30.0673C30.3344 17.3304 30.6014 17.306 30.8684 17.2575C31.1476 17.2089 31.4146 17.1483 31.6817 17.0754C31.9487 17.0026 32.2157 16.9177 32.4706 16.8206C32.7376 16.7234 32.9925 16.6021 33.2353 16.4807C33.4902 16.3593 33.7208 16.2258 33.9635 16.0802C34.1942 15.9224 34.4248 15.7646 34.6432 15.5946C34.8617 15.4247 35.0681 15.2427 35.2623 15.0485C35.4686 14.8664 35.6507 14.66 35.8327 14.4537C36.0148 14.2352 36.1847 14.0167 36.3425 13.7983C36.3668 13.7619 36.3911 13.7133 36.4154 13.6769C36.5367 13.4827 36.6581 13.2885 36.7673 13.0943C36.9009 12.8515 37.0222 12.6088 37.1315 12.3539C37.2407 12.099 37.3378 11.8441 37.4228 11.5771C37.5077 11.3222 37.5684 11.0551 37.6291 10.7881C37.6777 10.5089 37.7262 10.2419 37.7505 9.97489C37.7748 9.69572 37.7991 9.41655 37.7991 9.14953C37.7991 8.95532 37.7869 8.76112 37.7748 8.56692C37.7506 8.28775 37.7141 8.02072 37.6777 7.75369C37.6291 7.47452 37.5685 7.2075 37.4957 6.94046C37.4107 6.68557 37.3257 6.41854 37.2286 6.16365C37.1315 5.90876 37.0101 5.65387 36.8888 5.41111C36.7552 5.16836 36.6217 4.9256 36.4761 4.69499C36.3183 4.46438 36.1605 4.2459 35.9906 4.02741C35.8085 3.82107 35.6264 3.61473 35.4322 3.40839C35.3351 3.31129 35.2259 3.20205 35.1167 3.10495C34.5705 2.68013 34 2.27958 33.4295 1.91545C33.3446 1.86689 33.2717 1.83049 33.1868 1.79407C32.7862 1.53919 32.4099 1.4056 32.0337 1.28423Z" fill="#E0234D"/>
</g>
<defs>
<clipPath id="clip0_4437_8849">
<rect width="48" height="48" fill="white"/>
</clipPath>
</defs>
</svg>

<svg xmlns="http://www.w3.org/2000/svg" width="48" height="48" fill="none" viewBox="0 0 48 48"><g clip-path="url(#a)"><path fill="#e0234d" fill-rule="evenodd" d="M28.174.592c-.34 0-.656.073-.947.17.62.413.959.96 1.129 1.578.012.085.036.146.048.23.013.074.025.146.025.22.048 1.067-.28 1.2-.51 1.832a2.6 2.6 0 0 0 .17 2.391c.036.085.085.182.146.267-.462-3.07 2.1-3.532 2.573-4.49.036-.838-.656-1.397-1.202-1.785a2.7 2.7 0 0 0-1.432-.413m3.86.692c-.049.28-.012.207-.025.352-.012.097-.012.219-.024.316a3 3 0 0 1-.085.291 3 3 0 0 1-.097.291c-.049.098-.085.182-.133.28-.037.048-.061.097-.098.145l-.072.11c-.061.084-.122.17-.182.242-.073.073-.134.158-.219.219v.012c-.073.06-.146.133-.23.194-.255.194-.547.34-.814.522-.085.06-.17.11-.242.182a2 2 0 0 0-.231.194c-.085.073-.146.146-.219.23-.06.074-.133.159-.182.244-.06.085-.121.17-.17.255-.048.097-.085.182-.133.279-.037.097-.073.182-.097.279a4 4 0 0 0-.085.303c-.012.049-.012.11-.024.158-.013.049-.013.097-.025.146 0 .097-.012.206-.012.303 0 .073 0 .146.012.219 0 .097.013.194.037.303.012.097.036.194.06.291.037.098.061.195.098.292.024.06.06.121.085.17l-2.792-1.08a30 30 0 0 0-1.408-.365l-.765-.182a23 23 0 0 0-2.209-.328c-.024 0-.036-.012-.06-.012a22 22 0 0 0-2.173-.109 23 23 0 0 0-3.811.328 8 8 0 0 0-.547.097c-.376.073-.74.158-1.092.243l-.546.145c-.182.073-.352.158-.522.23l-.4.183c-.025.012-.05.012-.061.024-.122.06-.231.11-.34.17a5 5 0 0 0-.461.23c-.085.037-.17.086-.243.122a1 1 0 0 1-.11.06c-.109.062-.218.122-.315.183q-.164.09-.291.182c-.085.06-.17.11-.243.17-.012.012-.024.012-.037.024-.072.049-.157.11-.23.17l-.024.024-.182.146c-.025.012-.05.036-.073.049-.061.048-.122.109-.182.157-.013.025-.037.037-.049.049-.073.073-.146.133-.218.206-.013 0-.013.012-.025.025-.073.06-.145.133-.218.206-.012.012-.012.024-.024.024-.061.06-.122.121-.182.194-.025.025-.061.049-.085.073-.061.073-.134.146-.207.219-.012.024-.036.036-.048.06-.097.097-.182.194-.28.292l-.036.036c-.194.206-.4.413-.619.595-.218.194-.45.376-.68.534a9 9 0 0 1-.728.461 7 7 0 0 1-.765.364 9 9 0 0 1-.789.292c-.51.109-1.031.315-1.48.351-.097 0-.207.025-.304.037-.109.024-.206.049-.303.073l-.292.109c-.097.036-.194.085-.29.133-.086.061-.183.11-.268.17s-.17.134-.243.207a2 2 0 0 0-.242.218c-.073.085-.146.158-.207.243-.06.097-.133.182-.182.28-.06.084-.121.181-.17.278-.048.11-.097.207-.133.316-.037.097-.073.206-.11.316a3 3 0 0 0-.06.29c0 .013-.012.025-.012.037-.025.11-.025.255-.037.328-.012.085-.024.158-.024.243 0 .048 0 .109.012.158a1.5 1.5 0 0 0 .134.449v.012c.036.073.085.145.133.218.049.073.097.146.158.219.06.06.134.133.206.194.073.073.146.133.23.194.292.255.365.34.741.534.061.037.122.06.195.097.012 0 .024.012.036.012 0 .025 0 .037.012.061.012.097.037.194.06.291.025.11.062.207.098.292.036.072.06.145.097.218.012.024.024.049.036.06a5 5 0 0 0 .146.268l.182.255c.06.073.134.158.206.23.073.073.146.134.231.207 0 0 .012.012.024.012.073.06.146.121.219.17.085.06.17.11.267.158.085.048.182.097.279.133.073.037.158.06.243.085.012.012.024.012.048.024.049.013.11.025.158.037-.036.655-.048 1.274.049 1.493.109.242.643-.498 1.177-1.348-.073.838-.121 1.821 0 2.112.134.304.862-.643 1.493-1.687 8.606-1.99 16.459 3.957 17.284 12.356-.158-1.31-1.772-2.039-2.512-1.857-.364.899-.983 2.052-1.979 2.768a7.8 7.8 0 0 0-.121-2.428 7.85 7.85 0 0 1-1.505 3.059c-1.153.085-2.306-.473-2.913-1.31-.049-.037-.061-.11-.097-.159a2 2 0 0 1-.097-.255 1 1 0 0 1-.073-.255c-.012-.084-.012-.17-.012-.267v-.182a2 2 0 0 1 .06-.255 2 2 0 0 1 .085-.254c.049-.085.085-.17.146-.255.206-.583.206-1.056-.17-1.335a1.4 1.4 0 0 0-.23-.122c-.05-.012-.11-.036-.159-.048-.036-.012-.06-.025-.097-.037a2 2 0 0 0-.255-.06 1 1 0 0 0-.254-.037 2 2 0 0 0-.268-.024c-.06 0-.12.012-.181.012a1 1 0 0 0-.268.036c-.085.013-.17.025-.255.049s-.17.049-.254.085c-.085.036-.158.073-.243.11-.073.036-.146.084-.23.12-2.829 1.846-1.142 6.166.788 7.417-.728.133-1.468.291-1.675.449l-.024.024a11.4 11.4 0 0 0 1.639.813 40 40 0 0 0 1.966.583v.012q1.51.31 3.059.218c5.377-.376 9.783-4.466 10.584-9.855l.072.315c.037.219.085.45.11.68v.012c.024.11.036.219.048.316v.048c.013.11.024.219.024.316.013.133.025.267.025.4v.195c0 .06.012.133.012.194 0 .073-.012.145-.012.218v.17c0 .085-.012.158-.012.243 0 .049 0 .097-.013.158 0 .085-.012.17-.012.267-.012.036-.012.073-.012.11l-.036.278c0 .037 0 .073-.012.11-.013.12-.037.23-.049.352v.024l-.073.34v.036l-.073.328c0 .012-.012.036-.012.048-.024.11-.048.219-.085.328v.037c-.036.12-.073.23-.097.34-.012.011-.012.024-.012.024l-.11.364c-.048.121-.084.23-.133.352-.048.121-.085.242-.133.352-.049.121-.097.23-.146.352h-.012c-.049.109-.097.23-.158.34a1 1 0 0 1-.036.084c-.012.013-.012.025-.025.037a11.5 11.5 0 0 1-3.41 4.078c-.097.06-.195.134-.292.207-.024.024-.06.036-.084.06a5 5 0 0 1-.268.182l.037.073h.012l.51-.073h.012a26 26 0 0 0 .947-.17c.085-.012.182-.036.267-.06.06-.012.109-.025.17-.037.085-.012.17-.036.255-.048.072-.025.145-.037.218-.061a23 23 0 0 0 3.52-1.165 19.44 19.44 0 0 1-7.538 6.154 20 20 0 0 0 4.14-.717 19.4 19.4 0 0 0 11.47-9.163 19.4 19.4 0 0 1-3.266 7.804 19 19 0 0 0 3.241-2.694 19.24 19.24 0 0 0 5.11-10.318 19.3 19.3 0 0 1 .352 5.85c8.764-12.222.729-24.894-2.634-28.231-.012-.025-.024-.037-.024-.061-.012.012-.012.012-.012.024 0-.012 0-.012-.012-.024 0 .146-.012.291-.024.437-.037.279-.073.546-.122.813-.06.267-.133.534-.206.801-.085.255-.182.522-.291.777-.11.243-.231.498-.365.74a9.3 9.3 0 0 1-.935 1.347c-.181.22-.376.413-.57.607-.121.11-.23.207-.352.304l-.279.243c-.218.17-.437.327-.68.473-.23.146-.473.291-.716.413-.255.121-.51.23-.764.34a9 9 0 0 1-.79.255 10 10 0 0 1-.813.181c-.279.05-.558.073-.825.098a9 9 0 0 1-.583.024c-.279 0-.558-.024-.825-.049a6 6 0 0 1-.825-.121 6 6 0 0 1-.814-.206h-.012c.267-.025.534-.049.801-.098a9 9 0 0 0 1.603-.436c.267-.098.522-.219.764-.34.255-.122.486-.255.729-.4.23-.159.46-.316.68-.486a7 7 0 0 0 .618-.546c.207-.183.389-.389.57-.595q.275-.328.51-.656c.025-.036.05-.085.073-.121.122-.194.243-.388.352-.583a8.4 8.4 0 0 0 .656-1.517c.085-.255.145-.522.206-.789.049-.28.097-.546.122-.813.024-.28.048-.558.048-.825 0-.195-.012-.389-.024-.583-.024-.28-.06-.546-.097-.813a9 9 0 0 0-.182-.814c-.085-.254-.17-.521-.267-.776a8 8 0 0 0-.34-.753c-.134-.243-.267-.485-.413-.716-.158-.23-.316-.45-.485-.668a26 26 0 0 0-.559-.619 8 8 0 0 0-.315-.303 22 22 0 0 0-1.687-1.19 2 2 0 0 0-.243-.12c-.4-.256-.777-.39-1.153-.51" clip-rule="evenodd"/></g><defs><clipPath id="a"><path fill="#fff" d="M0 0h48v48H0z"/></clipPath></defs></svg>
